X: 1
T:Vals efter Carl Herman Erlandsson
M:3/4
L:1/8
S:SvL Uppland 103
A:By, s. Dalarna
K:Dm
DF Ad fa|a2 b2 a2-|ab aa ge|[c3e3] e ge|\
f2 d2 d2|d^c de fe|^c2 A2 A2|A4 z2::\
D^F FA FA|Ad ^f2 ed|d^c ce ce|^ce g2 =fe|\
ef df df|df ag e^c|e2 d2 d2|d2 AG ^FE|\
D^F FA FA|Ad ^f2 ed|d^c ce ce|^ce g2 =fe|\
ef df df|df ag e^c|e2 d2 d2|d4 z2:|\
T:Andrastmma
A,D FA df|f2 g2 f2-|fg ff ec|E3 A e^c|\
d2 FD FA|AG A^c dA|E2 [^C2E2] [C2E2]|[^C4E4]z2::\
A,2 D^F DF|D^F d2 ^cA|^FE EG EG|A^c e2 dc|\
^cd Ad Ad|Ad fe ^cA|[G2A2] [F2A2] [F2A2]|[F2A2]FE D^C|\
A,2 D^F DF|D^F d2 ^cA|^FE EG EG|A^c e2 dc|\
^cd Ad Ad|Ad fe ^cA|[G2A2] [F2A2] [F2A2]|[F4A4] z2:|]
